X: 15768
T: Good Morning Jeannie
R: reel
M: 4/4
K: Dmajor
AB|dBAF E2 DE|FEDB, G,2 B,G,|A,DDE FEDF|EDEF E2 AB|
dBAF E2 DE|FEDB, G,2 B,G,|A,DDF EDEF|DdAF D2 AB|
dBAF E2 DE|FEDB, G,2 B,G,|A,DDE FEDF|EDEF E2 AB|
dBAF E2 DE|FEDB, G,2 B,G,|A,DDF EDEF|DdAF D2 de|
fBBf eAAe|dGGB ADDF|GBAG FdAF|GFED CEA,C|
DFED EGFE|FAGF GBAG|Aafd gece|edde d2 de|
fBBf eAAe|dGGB ADDF|GBAG FdAF|GFED CEA,C|
DFED EGFE|FAGF GBAG|Aafd gece|edde d4|

